!!!!SEGMENT: Ric1002b-Requiem-Kyrie.krn
!!!id: Ric1002b
!!!AGN: Mass; Kyrie
!!!SCT: Elzinga (1979)
!!!voices: 6
!!!COM: Jean Richafort
!!!OTL: Kyrie
!!!OPR: Requiem
**kern	**kern	**kern	**kern	**kern	**kern
*part6	*part5	*part4	*part3	*part2	*part1
*staff6	*staff5	*staff4	*staff3	*staff2	*staff1
*I"Bassus	*I"Tenor III	*I"Tenor II	*I"Tenor I	*I"Altus	*I"Superius
*I'B	*I'T. III	*I'T. II	*I'T. I	*I'A	*I'S
*clefF4	*clefGv2	*clefGv2	*clefGv2	*clefGv2	*clefG2
*k[b-]	*k[b-]	*k[b-]	*k[b-]	*k[b-]	*k[b-]
*F:	*F:	*F:	*F:	*F:	*F:
*M2/1	*M2/1	*M2/1	*M2/1	*M2/1	*M2/1
*met(C|)	*met(C|)	*met(C|)	*met(C|)	*met(C|)	*met(C|)
!!section: Kyrie I
!!!OMD: Kyrie I
=1	=1	=1	=1	=1	=1
!	!LO:TX:a:t=Canon&colon; tenor III/tenor II at the fifth	!	!	!	!
0F	0r	0r	1.F	0c	1r
.	.	.	.	.	[1f
.	.	.	2G	.	.
=2	=2	=2	=2	=2	=2
1F	0r	0r	2A	1c	2f]
.	.	.	2B-y	.	2g
1F	.	.	1c	[1f	1a
=3	=3	=3	=3	=3	=3
2.BB-y	0r	0r	1.d	1f]	1.b-y
4C	.	.	.	.	.
4D	.	.	.	2.F	.
4E	.	.	.	.	.
[2F	.	.	4c	.	2a
.	.	.	4B-y	4G	.
=4	=4	=4	=4	=4	=4
4F]	0r	0r	2c	4A	1a
4E	.	.	.	4F	.
4F	.	.	2d	1f	.
4D	.	.	.	.	.
1G	.	.	1B-y	.	1g
.	.	.	.	2e	.
=5	=5	=5	=5	=5	=5
0F	[0F	0r	1A	1.f	1.a
.	.	.	2.D	.	.
.	.	.	.	2e	8gL
.	.	.	.	.	8f
.	.	.	4E	.	8g
.	.	.	.	.	8aJ
=6	=6	=6	=6	=6	=6
1BB-y	0F]	0r	2F	1.d	1b-y
.	.	.	2G	.	.
[1F	.	.	2A	.	[1a
.	.	.	2B-y	4c	.
.	.	.	.	4B-y	.
=7	=7	=7	=7	=7	=7
2F]	1F	0r	1c	0A	2a]
2E	.	.	.	.	2g
1D	1F	.	1F	.	[1f
=8	=8	=8	=8	=8	=8
0C	0G	0r	1.c	1r	1f]
.	.	.	.	[1c	1e
.	.	.	2B-y	.	.
=9	=9	=9	=9	=9	=9
0FF	0F	[0c	2A	2c]	1f
.	.	.	2G	2B-y	.
.	.	.	1F	1A	[1cc
=10	=10	=10	=10	=10	=10
1r	1G	0c]	1E	1G	2cc]
.	.	.	.	.	2b-y
[1F	[1A	.	1F	[1c	2a
.	.	.	.	.	4g
.	.	.	.	.	4f
=11	=11	=11	=11	=11	=11
2F]	2A]	1c	0C	2c]	0cc
2F	4G	.	.	2d	.
.	4F	.	.	.	.
1E	1G	1c	.	1e	.
=12	=12	=12	=12	=12	=12
1.D	0A	0d	2.F	1.f	1r
.	.	.	4G	.	.
.	.	.	4A	.	[1a
.	.	.	4G	.	.
4C	.	.	[2A	4e	.
4BB-y	.	.	.	4d	.
=13	=13	=13	=13	=13	=13
0AA	0r	0c	2A]	1e	1a]
.	.	.	4G	.	.
.	.	.	4F	.	.
.	.	.	1E	1A	1a
=14	=14	=14	=14	=14	=14
0r	0A	1d	1D	0r	1f
.	.	[1e	1r	.	[1a
=15	=15	=15	=15	=15	=15
0r	1A	2e]	0r	1r	1a]
.	.	4d	.	.	.
.	.	4c	.	.	.
.	1B-y	1d	.	1G	2.g
.	.	.	.	.	4f
=16	=16	=16	=16	=16	=16
0r	0G	0e	0C	0c	0g
=17	=17	=17	=17	=17	=17
1r	0F	0r	2.F	1A	0a
.	.	.	4G	.	.
1D	.	.	2A	1F	.
.	.	.	2B-y	.	.
=18	=18	=18	=18	=18	=18
1C	0r	0e	2c	1G	1r
.	.	.	2.c	.	.
[1AA	.	.	.	1A	[1cc
.	.	.	4B-y	.	.
.	.	.	4A	.	.
.	.	.	4G	.	.
=19	=19	=19	=19	=19	=19
1AA]	0A	1e	1A	0r	2cc]
.	.	.	.	.	2b-y
[1D	.	1f	1F	.	2a
.	.	.	.	.	2g
=20	=20	=20	=20	=20	=20
1D]	1A	0d	0F	0r	2.f
.	.	.	.	.	4e
1BB-y	1B-y	.	.	.	4d
.	.	.	.	.	4c
.	.	.	.	.	[2f
=21	=21	=21	=21	=21	=21
0C	0G	0c	1r	1r	2f]
.	.	.	.	.	4e
.	.	.	.	.	4d
.	.	.	1G	[1c	1e
=22	=22	=22	=22	=22	=22
0FF	0F	0r	[0A	2c]	1f
.	.	.	.	8cL	.
.	.	.	.	8B-y	.
.	.	.	.	8A	.
.	.	.	.	8GJ	.
.	.	.	.	2A	[1c
.	.	.	.	2F	.
=23	=23	=23	=23	=23	=23
0r	0r	0e	0A]	0c	2c]
.	.	.	.	.	2d
.	.	.	.	.	2e
.	.	.	.	.	2f
=24	=24	=24	=24	=24	=24
0r	0r	1e	1G	1B-y	1g
.	.	1f	1F	1A	[1cc
=25	=25	=25	=25	=25	=25
0r	0r	0d	0G	1G	2cc]
.	.	.	.	.	4bni
.	.	.	.	.	4a
.	.	.	.	[1g	1bni
=26	=26	=26	=26	=26	=26
0r	1r	0c	1r	2g]	[0cc
.	.	.	.	2c	.
.	[1F	.	1c	1c	.
=27	=27	=27	=27	=27	=27
1r	1F]	0r	1.A	1r	0cc]
1F	1F	.	.	1c	.
.	.	.	4G	.	.
.	.	.	4F	.	.
=28	=28	=28	=28	=28	=28
1F	1D	0r	2A	1d	0r
.	.	.	2B-y	.	.
1E	1C	.	1c	1e	.
=29	=29	=29	=29	=29	=29
1D	0F	0r	0d	[0f	1r
1BB-y	.	.	.	.	[1b-y
=30	=30	=30	=30	=30	=30
0F	0F	1r	0c	1.f]	1b-]
.	.	[1c	.	.	1a
.	.	.	.	4e	.
.	.	.	.	4d	.
=31	=31	=31	=31	=31	=31
0C	0r	1c]	1r	0e	1.g
.	.	1c	1C	.	.
.	.	.	.	.	4f
.	.	.	.	.	4e
=32	=32	=32	=32	=32	=32
1r	1r	1A	1F	0c	1f
1C	1E	1G	1E	.	1g
=33	=33	=33	=33	=33	=33
1AA	1F	0c	[0C	1r	0a
[1FF	1F	.	.	[1A	.
=34	=34	=34	=34	=34	=34
2FF]	0F	0c	0C]	1A]	0f
2GG	.	.	.	.	.
2.AA	.	.	.	1A	.
4BB-y	.	.	.	.	.
=35	=35	=35	=35	=35	=35
0GG	[0G	0r	0r	2.B-y	1r
.	.	.	.	4A	.
.	.	.	.	4B-y	[1b-y
.	.	.	.	4G	.
.	.	.	.	[2g	.
=36	=36	=36	=36	=36	=36
1r	0G]	1r	0r	4g]	1b-]
.	.	.	.	4f	.
.	.	.	.	1f	.
1B-y	.	1B-y	.	.	1g
.	.	.	.	2e	.
=37	=37	=37	=37	=37	=37
1A	[0F	1c	0r	0f	1a
[1F	.	1c	.	.	1a
=38	=38	=38	=38	=38	=38
2F]	0F]	0c	1.F	1r	0f
2G	.	.	.	.	.
1A	.	.	.	[1F	.
.	.	.	2G	.	.
=39	=39	=39	=39	=39	=39
2.D	0r	[0d	1A	2F]	0r
.	.	.	.	2G	.
4E	.	.	.	.	.
1F	.	.	1D	1A	.
=40	=40	=40	=40	=40	=40
0BB-y	0r	0d]	1.D	1F	0b-y
.	.	.	.	[1f	.
.	.	.	2E	.	.
=41	=41	=41	=41	=41	=41
1r	1r	[0c	1F	1f]	1a
1C	1E	.	1G	2.e	1g
.	.	.	.	4d	.
=42	=42	=42	=42	=42	=42
1AA	1F	0c]	[0C	2c	0a
.	.	.	.	2B-y	.
[1FF	1F	.	.	2A	.
.	.	.	.	2G	.
=43	=43	=43	=43	=43	=43
2FF]	0F	0r	0C]	0A	1f
2GG	.	.	.	.	.
2.AA	.	.	.	.	1cc
4BB-y	.	.	.	.	.
=44	=44	=44	=44	=44	=44
0GG	[0G	0r	0r	1r	2.b-y
.	.	.	.	.	4a
.	.	.	.	1B-y	4g
.	.	.	.	.	4f
.	.	.	.	.	[2g
=45	=45	=45	=45	=45	=45
1r	0G]	1r	0r	1G	4g]
.	.	.	.	.	4f
.	.	.	.	.	1f
1B-y	.	1B-y	.	1G	.
.	.	.	.	.	2e
=46	=46	=46	=46	=46	=46
1A	[0Fl	1c	1.F	0c	[0fl
[1F	.	1c	.	.	.
.	.	.	2G	.	.
=47	=47	=47	=47	=47	=47
2F]	0F_	0c	1A	1.F	0f_
2G	.	.	.	.	.
1A	.	.	[1F	.	.
.	.	.	.	2G	.
=48	=48	=48	=48	=48	=48
1.D	0F_	[0d	2F]	1A	0f_
.	.	.	2G	.	.
.	.	.	1A	1F	.
2C	.	.	.	.	.
=49	=49	=49	=49	=49	=49
0BB-y	0F_	0d]	1.D	0B-y	0f_
.	.	.	2E	.	.
=50	=50	=50	=50	=50	=50
[0FFl	0F_	[0cl	1.F	[0Al	0f_
.	.	.	4E	.	.
.	.	.	4D	.	.
=	=	=	=	=	=
00FF]	00F]	00c]	00C	00A]	00f]
=||	=||	=||	=||	=||	=||
*M2/1	*M2/1	*M2/1	*M2/1	*M2/1	*M2/1
*met(C|)	*met(C|)	*met(C|)	*met(C|)	*met(C|)	*met(C|)
!!section: Kyrie II
!!!OMD: Kyrie II
!	!LO:TX:a:t=Canon&colon; tenor III/tenor II at the fifth	!	!	!	!
[0F	0r	0r	0A	0c	[0f
=51	=51	=51	=51	=51	=51
1F]	0r	0r	1A	1c	0f]
1D	.	.	1F	1d	.
=52	=52	=52	=52	=52	=52
0C	0r	0r	0c	0e	0g
=53	=53	=53	=53	=53	=53
[0F	0r	0r	1c	[0f	1a
.	.	.	[1d	.	[1b-y
=54	=54	=54	=54	=54	=54
0F]	0r	0r	2d]	1.f]	2b-]
.	.	.	4c	.	4a
.	.	.	4B-y	.	4g
.	.	.	2c	.	2a
.	.	.	2d	8fL	2f
.	.	.	.	8e	.
.	.	.	.	8d	.
.	.	.	.	8cJ	.
=55	=55	=55	=55	=55	=55
0r	0r	0r	2.G	1.d	1b-y
.	.	.	4E	.	.
.	.	.	2F	.	2a
.	.	.	2G	2B-y	[2g
=56	=56	=56	=56	=56	=56
0C	0r	0r	2E	2.c	4g]
.	.	.	.	.	4f
.	.	.	2C	.	1f
.	.	.	.	8B-yL	.
.	.	.	.	8AJ	.
.	.	.	[1c	1G	.
.	.	.	.	.	2e
=57	=57	=57	=57	=57	=57
1.F	0r	0r	2c]	0F	1f
.	.	.	2B-y	.	.
.	.	.	2A	.	2r
2E	.	.	2G	.	2c
=58	=58	=58	=58	=58	=58
2D	0r	0r	4F	0r	2.f
.	.	.	4E	.	.
2C	.	.	1A	.	.
.	.	.	.	.	4e
1BB-y	.	.	.	.	1d
.	.	.	2G	.	.
=59	=59	=59	=59	=59	=59
2AA	0r	0r	0A	1r	0c
2FF	.	.	.	.	.
[1F	.	.	.	1c	.
=60	=60	=60	=60	=60	=60
2F]	0r	0r	2.D	1.f	0r
2E	.	.	.	.	.
.	.	.	4E	.	.
2D	.	.	2F	.	.
2C	.	.	[2G	2e	.
=61	=61	=61	=61	=61	=61
2BB-y	0r	0r	4G]	2d	1r
.	.	.	4F	.	.
2AA	.	.	1F	2c	.
1GG	.	.	.	1B-y	1g
.	.	.	2E	.	.
=62	=62	=62	=62	=62	=62
0FF	0F	0r	1F	2.A	1.cc
.	.	.	.	4B-y	.
.	.	.	1r	2c	.
.	.	.	.	[2d	2b-y
=63	=63	=63	=63	=63	=63
0r	1F	0r	2r	4d]	2.a
.	.	.	.	4c	.
.	.	.	2F	1c	.
.	.	.	.	.	4g
.	1D	.	1F	.	1f
.	.	.	.	2Bni	.
=64	=64	=64	=64	=64	=64
0r	1C	0r	1G	0c	1e
.	[1F	.	[1A	.	1c
=65	=65	=65	=65	=65	=65
1r	1F]	0c	2A]	0r	1.cc
.	.	.	4G	.	.
.	.	.	4F	.	.
1F	1F	.	2.A	.	.
.	.	.	.	.	2b-y
.	.	.	4B-y	.	.
=66	=66	=66	=66	=66	=66
2F	0r	1c	0c	1r	2a
2F	.	.	.	.	1g
1F	.	1A	.	1c	.
.	.	.	.	.	2f#i
=67	=67	=67	=67	=67	=67
0C	1r	1G	1r	1c	1g
.	1E	[1c	1G	[1c	2r
.	.	.	.	.	2c
=68	=68	=68	=68	=68	=68
1FF	1F	1c]	2.A	2c]	1.cc
.	.	.	.	2B-y	.
.	.	.	4B-y	.	.
[1F	1F	1c	1c	2.A	.
.	.	.	.	.	2b-y
.	.	.	.	4G	.
=69	=69	=69	=69	=69	=69
2F]	0F	0r	1F	1A	2a
2E	.	.	.	.	2g
2.D	.	.	1r	2r	2.f
.	.	.	.	2A	.
4C	.	.	.	.	4e
=70	=70	=70	=70	=70	=70
2BB-y	[0G	1r	1r	2B-y	2d
2C	.	.	.	1G	2c
1GG	.	1B-y	1G	.	1d
.	.	.	.	[2g	.
=71	=71	=71	=71	=71	=71
2r	0G]	1c	1C	4g]	0c
.	.	.	.	4f	.
1C	.	.	.	4e	.
.	.	.	.	4d	.
.	.	1c	[1c	1e	.
2C	.	.	.	.	.
=72	=72	=72	=72	=72	=72
1.F	[0F	0c	2c]	1f	1r
.	.	.	2B-y	.	.
.	.	.	[1A	1r	[1f
2E	.	.	.	.	.
=73	=73	=73	=73	=73	=73
1.D	0F]	[0d	2A]	0F	2f]
.	.	.	2G	.	2g
.	.	.	2F	.	1a
2C	.	.	2E	.	.
=74	=74	=74	=74	=74	=74
2.BB-y	0r	0d]	1.D	1F	1.b-y
4AA	.	.	.	.	.
2GG	.	.	.	2G	.
2FF	.	.	[2F	[2A	2a
=75	=75	=75	=75	=75	=75
2.AA	1r	[0c	1F]	4A]	1a
.	.	.	.	4B-y	.
.	.	.	.	2.c	.
4BB-y	.	.	.	.	.
1C	1E	.	1C	.	1g
.	.	.	.	4G	.
.	.	.	.	[2c	.
=76	=76	=76	=76	=76	=76
2r	1F	0c]	1r	4c]	0a
.	.	.	.	4B-y	.
1FF	.	.	.	4A	.
.	.	.	.	4G	.
.	1F	.	1C	1A	.
2FF	.	.	.	.	.
=77	=77	=77	=77	=77	=77
1.BB-y	0F	0r	1D	[0B-y	1f
.	.	.	1D	.	[1b-y
2AA	.	.	.	.	.
=78	=78	=78	=78	=78	=78
0GG	[0G	1r	0D	0B-]	2b-]
.	.	.	.	.	2a
.	.	1B-y	.	.	2.g
.	.	.	.	.	4f
=79	=79	=79	=79	=79	=79
1.C	0G]	1c	1C	1r	4e
.	.	.	.	.	4d
.	.	.	.	.	1f
.	.	1c	[1c	1G	.
2C	.	.	.	.	2e
=80	=80	=80	=80	=80	=80
1.F	[0Fl	0c	2c]	1A	[0fl
.	.	.	2B-y	.	.
.	.	.	2A	1F	.
2E	.	.	2G	.	.
=81	=81	=81	=81	=81	=81
1.D	0F_	[0d	1A	1.f	0f_
.	.	.	1F	.	.
2C	.	.	.	2e	.
=82	=82	=82	=82	=82	=82
0BB-y	0F_	0d]	0B-y	2d	0f_
.	.	.	.	2c	.
.	.	.	.	1B-y	.
=83	=83	=83	=83	=83	=83
[0FFl	0F_	[0cl	2.A	1.c	0f_
.	.	.	4G	.	.
.	.	.	2F	.	.
.	.	.	4E	2A	.
.	.	.	4D	.	.
=84	=84	=84	=84	=84	=84
00FF]	00F]	00c]	00Cl	00Al	00f]
==	==	==	==	==	==
*-	*-	*-	*-	*-	*-
!!!system-decoration: [*]
!!!RDF**kern: i = editorial accidental
!!!RDF**kern: l = terminal long
!!!ENC: Benjamin Ory
!!!END: 2021/2/25
!!!EED: Benjamin Ory
!!!EEV: 2021/05/02
!!!YEC: Copyright 2021 Benjamin Ory, All Rights Reserved
!!!ONB: Translated from MusicXML on 2021/05/02
